X:447
T:Comin' Thro' the Rye
S:Childhood
Z:Nigel Gatherer
M:4/4
L:1/8
K:G
D>DD<B A>GA<B | D<DE>D    G2 G2 | D>Dd<B A>GA<B | D<DE>D G2 z2 ||
d>BG<B A>GA<B | d>B (3GBd e3 g  | d>Bc>A B>GA<B | D<DE>D G2 z2 |]
<end>
<start>
